static/assets/images/icons/axelar.svg

<svg xmlns="http://www.w3.org/2000/svg" fill="none" viewBox="0 0 257 256"><path fill="#000" d="m128.109 182.179 52.993 52.977 24.806-24.802-65.383-65.371a17.56 17.56 0 0 0-12.396-5.133c-4.644 0-9.1 1.845-12.397 5.133l-65.37 65.371 24.78 24.802 52.967-52.964zm107.131-1.178-52.967-52.963 52.967-52.977-24.793-24.802-65.37 65.371a17.5 17.5 0 0 0-3.801 5.684 17.54 17.54 0 0 0 3.801 19.118l65.37 65.371zm-94.635-69.828 65.37-65.371L181.182 21l-52.967 52.977L75.222 21 50.429 45.802l65.383 65.371c3.42 3.426 7.905 5.126 12.39 5.126 4.498 0 8.983-1.7 12.403-5.126m-29.358 29.353a17.5 17.5 0 0 0 3.797-5.685 17.56 17.56 0 0 0-3.797-19.117l-65.37-65.371-24.793 24.802 52.967 52.963-52.967 52.977 24.793 24.802z"/></svg>

<svg width="257" height="256" viewBox="0 0 257 256" fill="none" xmlns="http://www.w3.org/2000/svg">
<path d="M128.109 182.179L181.102 235.156L205.908 210.354L140.525 144.983C137.228 141.695 132.772 139.85 128.129 139.85C123.485 139.85 119.029 141.695 115.732 144.983L50.362 210.354L75.1419 235.156L128.109 182.192V182.179Z" fill="black"/>
<path d="M235.24 181.001L182.273 128.038L235.24 75.0609L210.447 50.259L145.077 115.63C143.449 117.254 142.157 119.186 141.276 121.314C140.394 123.442 139.94 125.725 139.94 128.031C139.94 130.337 140.394 132.62 141.276 134.748C142.157 136.876 143.449 138.808 145.077 140.432L210.447 205.803L235.24 181.001Z" fill="black"/>
<path d="M140.605 111.173L205.975 45.8019L181.182 21L128.215 73.9768L75.2218 21L50.4286 45.8019L115.812 111.173C119.232 114.599 123.717 116.299 128.202 116.299C132.7 116.299 137.185 114.599 140.605 111.173Z" fill="black"/>
<path d="M111.247 140.526C112.873 138.901 114.164 136.969 115.044 134.841C115.925 132.712 116.378 130.43 116.378 128.125C116.378 125.82 115.925 123.537 115.044 121.409C114.164 119.281 112.873 117.348 111.247 115.724L45.8772 50.3527L21.084 75.1546L74.0507 128.118L21.084 181.095L45.8772 205.897L111.247 140.526Z" fill="black"/>
</svg>
